X:13023
T:Perrusalda (Taramundi)
C:Trad.
M:2/4
L:1/8
Q:1/4=144
K:Am
G|: cc cc|c d2 c|B2 AB|c z2 G :|
|AA AA|A2 A2|c2 BA|GF EF|G4|F4|G2 F2|E z3|
